static/assets/images/tokens/uxd.svg

<svg width="256" height="256" viewBox="0 0 256 256" fill="none" xmlns="http://www.w3.org/2000/svg">
<path d="M128 256C198.692 256 256 198.692 256 128C256 57.3075 198.692 0 128 0C57.3075 0 0 57.3075 0 128C0 198.692 57.3075 256 128 256Z" fill="black"/>
<path d="M155.276 115.643L186.416 149.262L189.993 145.441L158.854 111.822L167.635 102.309L198.815 135.928L202.392 132.107L171.212 98.4878L199.384 68.0801H178.123L160.602 86.9833L129.625 53.6081L126.048 57.4293L156.984 90.8046L148.162 100.317L117.226 66.9419L113.649 70.7225L144.626 104.138L126.332 123.895L74.623 68.0801H53.3214L115.722 135.359L53.3214 202.679H74.623L126.373 146.864L178.082 202.679H199.384L137.064 135.318L155.358 115.602L155.276 115.643Z" fill="white"/>
</svg>

<svg xmlns="http://www.w3.org/2000/svg" fill="none" viewBox="0 0 256 256"><path fill="#000" d="M128 256c70.692 0 128-57.308 128-128S198.692 0 128 0 0 57.308 0 128s57.308 128 128 128"/><path fill="#fff" d="m155.276 115.643 31.14 33.619 3.577-3.821-31.139-33.619 8.781-9.513 31.18 33.619 3.577-3.821-31.18-33.62 28.172-30.407h-21.261l-17.521 18.903-30.977-33.375-3.577 3.821 30.936 33.376-8.822 9.512-30.936-33.375-3.577 3.78 30.977 33.416-18.294 19.757L74.623 68.08H53.321l62.401 67.279-62.4 67.32h21.301l51.75-55.815 51.709 55.815h21.302l-62.32-67.361 18.294-19.716z"/></svg>
